ressources/icons/edit-table-insert-column-left.svg

<svg height="16" width="16" xmlns="http://www.w3.org/2000/svg"><path d="m7 1v2h2v2h-2v2h2v2h-2v2h2v2h-2v2h8v-14zm-6 1v7h1.719l-.719-.719v-2.561l.281.28 1 1 1.719 1.719v.281h1v-7h-1v1.281l-.281-.281-1-1h-1.439l1 1 1.72 1.719v2.561l-.281-.28-1-1-1.719-1.719v-2.281zm10 1h2v2h-2zm0 4h2v2h-2zm-6 3-4 2 4 2zm6 1h2v2h-2z" fill="#404040"/></svg>

<svg height="16" width="16" xmlns="http://www.w3.org/2000/svg"><path d="M7 1v2h2v2H7v2h2v2H7v2h2v2H7v2h8V1zM1 2v7h1.719L2 8.281V5.72L2.281 6l1 1L5 8.719V9h1V2H5v1.281L4.719 3l-1-1H2.28l1 1L5 4.719V7.28L4.719 7l-1-1L2 4.281V2zm10 1h2v2h-2zm0 4h2v2h-2zm-6 3-4 2 4 2zm6 1h2v2h-2z" fill="#404040"/></svg>
